X:1
T: The Dusty Miller
C:
R:Jig
Q:180
K:G
M:6/8
L:1/16
|:B2c2d2 B2A2G2|F2A2A2 B2A2G2|B2c2d2 B2A2G2|D2G2G2 B2A2G2|
B2c2d2 B2A2G2|F2A2A2 B2A2G2|B2c2d2 B2A2G2|D2G2G2 B2A2G2|
B2d2d2 g2f2e2|a2A2A2 B2A2G2|B2d2d2 g2e2f2|g2G2G2 B2A2G2|
B2d2d2 g2f2e2|a2A2A2 B2A2G2|B2d2g2 f2g2a2|g2a2g2 d2B2G2:|
